X:1
T:Title
%%score { 1 | ( 2 3 ) }
L:1/8
Q:1/4=160
M:4/2
K:Bb
V:1 treble nm="Grand Piano"
V:2 bass 
V:3 bass 
V:1
 [B,DF]4 [B,DF]4 [B,EG]4 [B,DF]4 | [B,EG]4 [CEA]4 [DFB]8 | [CFA]4 [B,FB]4 [Ec]4 [Dd]4 | %3
w: R.~Cecil * * *|||
 [Ge]4 [Fd]4 [Fc]8 | [Fd]4 .[Fc]4 [B,FB]4 [CFA]4 | [DFG]4 .[C=EG]4 [A,F]8 | %6
w: |||
 [B,DF]4 [B,EG]2 [FA]2 [B,FB]4 .[B,EA]4 | .[B,DF]4 [A,CE]4 [B,D]8 | %8
w: ||
 [B,DF]4 [B,DF]4 [B,EG]4 [B,DF]4 | B4 c4 d8 | [Ge]4 [Fd]4 [Fc]4 [B,FB]4 | [CEB]4 [CEA]4 [B,DB]8 |] %12
w: ||||
V:2
 B,,4 B,,4 E,4 B,,4 | E,4 C,4 B,,8 | F,4 D,4 [C,A,]4 [B,,B,]4 | [E,B,]4 [B,,B,]4 [F,A,]8 | %4
 [B,,B,]4 z2 =E2 D,4 F,4 | B,,4 z2 B,2 F,8 | B,,4 z2 C2 D,4 z2 G2 | F,4 z4 z8 | %8
 B,,4 B,,4 E,4 B,,4 | [G,B,D]4 [F,A,F]4 [B,F]8 | [E,B,]4 [B,,B,]4 A,2- [E,A,]2 D,4 | %11
 C,4 F,4 B,,8 |] %12
V:3
 x16 | x16 | x16 | x16 | z4 [C,G,]4 z8 | z4 C,4 z8 | z4 E,4 z4 E,4 | z2 G,2 F,,4 B,,8 | x16 | x16 | %10
 z8 .F,4 z4 | x16 |] %12

